X: 1
T: So What Chord
C: Swing
M: 4/4
L: 1/4
K: C
V: 1 clef=treble
| z4 | z2 [D3/2 G3/2 B3/2] [C/2 F/2 A/2] | z4 | z2 [D3/2 G3/2 B3/2] [C/2 F/2 A/2] |
V: 2 clef=bass
| z/2 D,,/2 A,,/2 B,,/2 C,/2 D,/2 E,/2 C,/2 | D,2 [E,3/2 A,3/2] [D,/2 G,/2] | z/2 D,,/2 A,,/2 B,,/2 C,/2 D,/2 E,/2 C,/2 | D,/2 A,,3/2 [E,3/2 A,3/2] [D,/2 G,/2] |

